src/assets/outline/DocumentCopy.svg

<svg width="24" height="24" viewBox="0 0 24 24"  xmlns="http://www.w3.org/2000/svg">
<path d="M11.4 22.75H7.6C3.21 22.75 1.25 20.79 1.25 16.4V12.6C1.25 8.21 3.21 6.25 7.6 6.25H10.6C11.01 6.25 11.35 6.59 11.35 7C11.35 7.41 11.01 7.75 10.6 7.75H7.6C4.02 7.75 2.75 9.02 2.75 12.6V16.4C2.75 19.98 4.02 21.25 7.6 21.25H11.4C14.98 21.25 16.25 19.98 16.25 16.4V13.4C16.25 12.99 16.59 12.65 17 12.65C17.41 12.65 17.75 12.99 17.75 13.4V16.4C17.75 20.79 15.79 22.75 11.4 22.75Z" />
<path d="M17.0001 14.1505H13.8001C10.9901 14.1505 9.8501 13.0105 9.8501 10.2005V7.00048C9.8501 6.70048 10.0301 6.42048 10.3101 6.31048C10.5901 6.19048 10.9101 6.26048 11.1301 6.47048L17.5301 12.8705C17.7401 13.0805 17.8101 13.4105 17.6901 13.6905C17.5801 13.9705 17.3001 14.1505 17.0001 14.1505ZM11.3501 8.81048V10.2005C11.3501 12.1905 11.8101 12.6505 13.8001 12.6505H15.1901L11.3501 8.81048Z" />
<path d="M15.6001 2.75H11.6001C11.1901 2.75 10.8501 2.41 10.8501 2C10.8501 1.59 11.1901 1.25 11.6001 1.25H15.6001C16.0101 1.25 16.3501 1.59 16.3501 2C16.3501 2.41 16.0101 2.75 15.6001 2.75Z" />
<path d="M7 5.75C6.59 5.75 6.25 5.41 6.25 5C6.25 2.93 7.93 1.25 10 1.25H12.62C13.03 1.25 13.37 1.59 13.37 2C13.37 2.41 13.03 2.75 12.62 2.75H10C8.76 2.75 7.75 3.76 7.75 5C7.75 5.41 7.41 5.75 7 5.75Z" />
<path d="M19.1899 17.75C18.7799 17.75 18.4399 17.41 18.4399 17C18.4399 16.59 18.7799 16.25 19.1899 16.25C20.3299 16.25 21.2499 15.32 21.2499 14.19V8C21.2499 7.59 21.5899 7.25 21.9999 7.25C22.4099 7.25 22.7499 7.59 22.7499 8V14.19C22.7499 16.15 21.1499 17.75 19.1899 17.75Z" />
<path d="M22 8.75048H19C16.34 8.75048 15.25 7.66048 15.25 5.00048V2.00048C15.25 1.70048 15.43 1.42048 15.71 1.31048C15.99 1.19048 16.31 1.26048 16.53 1.47048L22.53 7.47048C22.74 7.68048 22.81 8.01048 22.69 8.29048C22.58 8.57048 22.3 8.75048 22 8.75048ZM16.75 3.81048V5.00048C16.75 6.83048 17.17 7.25048 19 7.25048H20.19L16.75 3.81048Z" />
</svg>

<?xml version="1.0" encoding="UTF-8"?>
<svg width="24" height="24" viewBox="0 0 24 24" xmlns="http://www.w3.org/2000/svg">
 <path d="m11.4 22.75h-3.8c-4.39 0-6.35-1.96-6.35-6.35v-3.8c0-4.39 1.96-6.35 6.35-6.35h3c0.41 0 0.75 0.34 0.75 0.75s-0.34 0.75-0.75 0.75h-3c-3.58 0-4.85 1.27-4.85 4.85v3.8c0 3.58 1.27 4.85 4.85 4.85h3.8c3.58 0 4.85-1.27 4.85-4.85v-3c0-0.41 0.34-0.75 0.75-0.75s0.75 0.34 0.75 0.75v3c0 4.39-1.96 6.35-6.35 6.35z"/>
 <path d="m17 14.15h-3.2c-2.81 0-3.95-1.14-3.95-3.95v-3.2c0-0.3 0.18-0.58 0.46-0.69 0.28-0.12 0.6-0.05 0.82 0.16l6.4 6.4c0.21 0.21 0.28 0.54 0.16 0.82-0.11 0.28-0.39 0.46-0.69 0.46zm-5.65-5.34v1.39c0 1.99 0.46 2.45 2.45 2.45h1.39l-3.84-3.84z"/>
 <path d="m15.6 2.75h-4c-0.41 0-0.75-0.34-0.75-0.75s0.34-0.75 0.75-0.75h4c0.41 0 0.75 0.34 0.75 0.75s-0.34 0.75-0.75 0.75z"/>
 <path d="m7 5.75c-0.41 0-0.75-0.34-0.75-0.75 0-2.07 1.68-3.75 3.75-3.75h2.62c0.41 0 0.75 0.34 0.75 0.75s-0.34 0.75-0.75 0.75h-2.62c-1.24 0-2.25 1.01-2.25 2.25 0 0.41-0.34 0.75-0.75 0.75z"/>
 <path d="m19.19 17.75c-0.41 0-0.75-0.34-0.75-0.75s0.34-0.75 0.75-0.75c1.14 0 2.06-0.93 2.06-2.06v-6.19c0-0.41 0.34-0.75 0.75-0.75s0.75 0.34 0.75 0.75v6.19c0 1.96-1.6 3.56-3.56 3.56z"/>
 <path d="m22 8.7505h-3c-2.66 0-3.75-1.09-3.75-3.75v-3c0-0.3 0.18-0.58 0.46-0.69 0.28-0.12 0.6-0.05 0.82 0.16l6 6c0.21 0.21 0.28 0.54 0.16 0.82-0.11 0.28-0.39 0.46-0.69 0.46zm-5.25-4.94v1.19c0 1.83 0.42 2.25 2.25 2.25h1.19l-3.44-3.44z"/>
</svg>
